assets/svgs/menu/web-scraping.svg

<svg width="24" height="24" viewBox="0 0 24 24" fill="none" xmlns="http://www.w3.org/2000/svg">
<g id="Web Spcraping">
<path id="Subtract" d="M17.8193 3.0484C19.4761 3.04849 20.8193 4.3916 20.8193 6.0484V13.8697L18.8193 13.1002V9.01715H2.95801V17.9254L2.96289 18.0279C3.0143 18.5319 3.44039 18.9254 3.95801 18.9254H14.5059L15.2744 20.9254H3.95801C2.35296 20.9254 1.04231 19.6647 0.961914 18.0797L0.958008 17.9254V6.0484C0.958008 4.39155 2.30115 3.0484 3.95801 3.0484H17.8193ZM3.95801 5.0484C3.40572 5.0484 2.95801 5.49612 2.95801 6.0484V7.01715H18.8193V6.0484C18.8193 5.49617 18.3715 5.04849 17.8193 5.0484H3.95801Z" fill="#2E3A48"/>
<path id="Vector 52" d="M15.1303 14.3988L17.7303 21.1646C17.8005 21.3472 18.0639 21.3309 18.1111 21.1411L18.8735 18.0737C18.8913 18.0018 18.9475 17.9457 19.0193 17.9278L22.1764 17.1431C22.3661 17.0959 22.3824 16.8326 22.2 16.7623L15.3888 14.1404C15.2271 14.0781 15.0681 14.237 15.1303 14.3988Z" stroke="#12A3FC" stroke-width="2"/>
</g>
</svg>

<svg xmlns="http://www.w3.org/2000/svg" width="24" height="24" fill="none" viewBox="0 0 24 24">
  <path fill="currentColor" fill-rule="evenodd" d="M17.82 3.048a3 3 0 0 1 3 3v7.822l-2-.77V9.017H2.957v8.908l.005.103a1 1 0 0 0 .995.897h10.548l.768 2H3.958A3 3 0 0 1 .962 18.08l-.004-.155V6.048a3 3 0 0 1 3-3h13.861Zm-13.862 2a1 1 0 0 0-1 1v.97h15.861v-.97a1 1 0 0 0-1-1H3.958Z" clip-rule="evenodd"/>
  <path fill="#12A3FC" d="M14.143 14.576c-.186-.843.58-1.61 1.423-1.424l.183.055 6.81 2.622.1.043c.956.46.869 1.873-.137 2.212l-.105.03-2.69.669-.645 2.6c-.283 1.138-1.864 1.235-2.285.14l-2.6-6.766-.054-.181Zm3.61 3.86.15-.604.05-.156a1.2 1.2 0 0 1 .669-.668l.156-.05.696-.174-2.765-1.063 1.044 2.715Z"/>
</svg>
